X:1
T:title
M:4/4
Q:120
L:1/8
R:Reel
K:C
 ^E _c' ^A3 _E ^Gd |  _D4g'4 |  ^a'4 ^g3D |  ^f'3e'a4 | e'2 ^b ^A4 ^e |  ^D ^D3c2B ^D |  _e' _f' _g2f ^aC _G |  _c'2 ^b4 ^D ^g | 